X:82
T:Robin Ddiog
M:6/8
L:1/8
Q:120
C:Trad.
R:Processional
N:Slightly compressed
K:G
E | G2 G FFF | E2 E G2 G | F2 F E2 E | B2
B E2 B | E2 E E2 F | G2 A B2 A | GFE F2
G | E3 E3 | B3- B2 G | E3- E2 G | B2
c B2 G | E3 A3 | GFE F2 G | E3 E2 ||
